storage/app/icons/phosphoricons/bold/rows-bold.svg

<svg xmlns="http://www.w3.org/2000/svg" fill="currentColor" viewBox="0 0 256 256"><path d="M208 136H48a20 20 0 0 0-20 20v36a20 20 0 0 0 20 20h160a20 20 0 0 0 20-20v-36a20 20 0 0 0-20-20m-4 52H52v-28h152Zm4-144H48a20 20 0 0 0-20 20v36a20 20 0 0 0 20 20h160a20 20 0 0 0 20-20V64a20 20 0 0 0-20-20m-4 52H52V68h152Z"/></svg>

<svg xmlns="http://www.w3.org/2000/svg" viewBox="0 0 256 256" fill="currentColor"><path d="M208,136H48a20,20,0,0,0-20,20v36a20,20,0,0,0,20,20H208a20,20,0,0,0,20-20V156A20,20,0,0,0,208,136Zm-4,52H52V160H204Zm4-144H48A20,20,0,0,0,28,64v36a20,20,0,0,0,20,20H208a20,20,0,0,0,20-20V64A20,20,0,0,0,208,44Zm-4,52H52V68H204Z"/></svg>
